icon-themes/sifr_svg/cmd/lc_insertrows.svg

<svg viewBox="0 0 24 24" xmlns="http://www.w3.org/2000/svg"><g fill="#555753"><path d="m4 8v8h16v-8z" opacity=".35"/><path d="m2 2v20h20v-20zm2 2h4v3h-4zm5 0h6v3h-6zm7 0h4v3h-4zm-12 4h16v8h-16zm7 1v2h-2v2h2v2h2v-2h2v-2h-2v-2zm-7 8h4v3h-4zm5 0h6v3h-6zm7 0h4v3h-4z"/></g></svg>

<svg xmlns="http://www.w3.org/2000/svg" viewBox="0 0 24 24">
    <path
       d="m 4,8 v 8 H 20 V 8 Z"
       style="opacity:0.35;fill:#555753" />
    <path
       d="M 2,2 V 22 H 22 V 2 Z M 4,4 H 8 V 7 H 4 Z m 5,0 h 6 V 7 H 9 Z m 7,0 h 4 V 7 H 16 Z M 4,8 h 16 v 8 H 4 Z m 7,1 v 2 H 9 v 2 h 2 v 2 h 2 v -2 h 2 V 11 H 13 V 9 Z m -7,8 h 4 v 3 H 4 Z m 5,0 h 6 v 3 H 9 Z m 7,0 h 4 v 3 h -4 z"
       style="fill:#555753" />
</svg>
